X: 1
T: Gordon's Favourite Reel
C: Ronnie Cooper (1934-1982)
R: reel
Z: 2009 John Chambers <jc:trillian.mit.edu>
M: C|
L: 1/8
K: G
D \
| "G"G3A BGBd | "C"edef "G"gdBd | "C"gfge "G"dBGB | "A7"ABAG "D7"E2DE \
| "G"G2GA BGBd | "C"edef "G"g2ag | "D"fafd "A7"egfe | "D"d2f2 d3 :|
|: d \
| "C"e2ce gece | "G"d2Bd gdBd | "D7"c2Ac "G"B2GB | "A7"ABAG "D7"E2DE \
| "G"G2GA BGBd | "C"edef "G"gfge | "G"dBGB "D7"AcBA | "G"G2B2 G2 :|
